dist/img/analytics/card_5.svg

<svg width="33" height="32" viewBox="0 0 33 32" fill="none" xmlns="http://www.w3.org/2000/svg">
<path d="M3.57456 28.4642V29.855C3.57456 30.3119 3.41687 30.7004 3.10148 31.0202C2.7861 31.3401 2.40304 31.5 1.9523 31.5C1.50183 31.5 1.11941 31.3401 0.805042 31.0202C0.490678 30.7004 0.333496 30.3119 0.333496 29.855V19.1239C0.333496 18.8416 0.356863 18.565 0.403596 18.2942C0.450329 18.0235 0.532049 17.7588 0.648754 17.4998L3.4424 10.7766C3.60252 10.3771 3.85419 10.06 4.19741 9.82516C4.54064 9.59006 4.92242 9.47251 5.34276 9.47251H18.5434C18.9614 9.47251 19.3445 9.59006 19.6925 9.82516C20.0409 10.06 20.2962 10.3771 20.4587 10.7766L23.2374 17.4998C23.3541 17.7588 23.4358 18.0235 23.4825 18.2942C23.5293 18.565 23.5526 18.8416 23.5526 19.1239V29.855C23.5526 30.3119 23.3949 30.7004 23.0795 31.0202C22.7642 31.3401 22.3811 31.5 21.9304 31.5C21.4796 31.5 21.0972 31.3401 20.7831 31.0202C20.4687 30.7004 20.3116 30.3119 20.3116 29.855V28.4642H3.57456ZM3.59256 15.9629H20.2702L18.564 11.8054H5.32208L3.59256 15.9629ZM2.63185 26.1313H21.2543V18.2953H2.63185V26.1313ZM6.50994 24.2472C7.06768 24.2472 7.5405 24.0528 7.92841 23.664C8.31632 23.2752 8.51028 22.7964 8.51028 22.2277C8.51028 21.6588 8.31517 21.1752 7.92496 20.7771C7.53475 20.3789 7.06078 20.1799 6.50305 20.1799C5.94557 20.1799 5.47287 20.3789 5.08496 20.7771C4.69705 21.1752 4.5031 21.6588 4.5031 22.2277C4.5031 22.7964 4.6982 23.2752 5.08841 23.664C5.47862 24.0528 5.95246 24.2472 6.50994 24.2472ZM17.3831 24.2472C17.9406 24.2472 18.4134 24.0528 18.8015 23.664C19.1895 23.2752 19.3834 22.7964 19.3834 22.2277C19.3834 21.6588 19.1882 21.1752 18.7977 20.7771C18.4075 20.3789 17.9337 20.1799 17.3762 20.1799C16.8187 20.1799 16.346 20.3789 15.9581 20.7771C15.5699 21.1752 15.3758 21.6588 15.3758 22.2277C15.3758 22.7964 15.5711 23.2752 15.9615 23.664C16.3518 24.0528 16.8256 24.2472 17.3831 24.2472ZM22.7896 7.31929H9.20591C8.82285 7.31929 8.53556 7.19798 8.34403 6.95537C8.1525 6.71301 8.05674 6.44642 8.05674 6.15559C8.05674 5.86451 8.1525 5.59688 8.34403 5.3527C8.53556 5.10853 8.82285 4.98645 9.20591 4.98645H22.934C23.3495 4.98645 23.7304 5.10361 24.0767 5.33793C24.4227 5.57225 24.6752 5.88978 24.8343 6.29051L27.5985 12.9539C27.7152 13.2128 27.7969 13.4776 27.8437 13.7482C27.8904 14.0188 27.9138 14.2954 27.9138 14.5779V25.7876C27.9138 26.1181 27.8036 26.3951 27.5832 26.6185C27.3628 26.8422 27.0898 26.9541 26.7642 26.9541C26.4383 26.9541 26.1655 26.8422 25.9456 26.6185C25.7255 26.3951 25.6154 26.1181 25.6154 25.7876V14.207L22.7896 7.31929ZM27.2243 2.83284H13.6992C13.3161 2.83284 13.0288 2.71167 12.8373 2.46931C12.6458 2.22695 12.55 1.96023 12.55 1.66914C12.55 1.37832 12.6458 1.11082 12.8373 0.866645C13.0288 0.622215 13.3161 0.5 13.6992 0.5H27.3687C27.7842 0.5 28.1649 0.61716 28.5109 0.851481C28.8572 1.0858 29.1099 1.40333 29.269 1.80406L32.0182 8.42273C32.1349 8.68167 32.2167 8.94645 32.2634 9.21706C32.3101 9.48767 32.3335 9.76424 32.3335 10.0468V21.2413C32.3335 21.5718 32.2233 21.8489 32.0029 22.0726C31.7828 22.296 31.5098 22.4077 31.1839 22.4077C30.8581 22.4077 30.5852 22.296 30.3653 22.0726C30.1452 21.8489 30.0351 21.5718 30.0351 21.2413V9.66108L27.2243 2.83284Z" fill="#2453E1"/>
</svg>

<svg width="33" height="32" viewBox="0 0 33 32" fill="none" xmlns="http://www.w3.org/2000/svg"><path d="M3.575 28.464v1.391c0 .457-.158.845-.474 1.165-.315.32-.698.48-1.149.48-.45 0-.833-.16-1.147-.48a1.6 1.6 0 01-.472-1.165V19.124c0-.282.024-.559.07-.83A3.29 3.29 0 01.65 17.5l2.793-6.723c.16-.4.412-.717.755-.952a1.982 1.982 0 011.146-.352h13.2c.418 0 .802.117 1.15.352.348.235.603.552.766.952l2.778 6.723c.117.259.199.523.246.794.046.271.07.548.07.83v10.731c0 .457-.158.845-.474 1.165-.315.32-.698.48-1.149.48-.45 0-.833-.16-1.147-.48a1.6 1.6 0 01-.471-1.165v-1.39H3.575zm.018-12.501H20.27l-1.706-4.158H5.322l-1.73 4.158zM2.632 26.13h18.622v-7.836H2.632v7.836zm3.878-1.884c.558 0 1.03-.194 1.418-.583.388-.389.582-.868.582-1.436 0-.57-.195-1.053-.585-1.45a1.916 1.916 0 00-1.422-.598c-.557 0-1.03.199-1.418.597a2.002 2.002 0 00-.582 1.45c0 .57.195 1.048.585 1.437.39.389.864.583 1.422.583zm10.873 0a1.93 1.93 0 001.419-.583c.387-.389.581-.868.581-1.436 0-.57-.195-1.053-.585-1.45a1.916 1.916 0 00-1.422-.598c-.557 0-1.03.199-1.418.597a2 2 0 00-.582 1.45c0 .57.195 1.048.585 1.437.39.389.865.583 1.422.583zM22.79 7.32H9.206c-.383 0-.67-.121-.862-.364a1.26 1.26 0 010-1.602c.192-.244.479-.367.862-.367h13.728c.415 0 .796.118 1.143.352.346.234.598.552.757.953l2.765 6.663c.116.259.198.524.245.794.046.27.07.547.07.83v11.21c0 .33-.11.607-.33.83a1.106 1.106 0 01-.82.336c-.326 0-.598-.112-.818-.335-.22-.224-.33-.5-.33-.831V14.207L22.79 7.319zm4.434-4.486H13.7c-.383 0-.67-.121-.862-.364a1.261 1.261 0 010-1.602C13.03.622 13.317.5 13.7.5h13.67c.415 0 .796.117 1.142.351.346.235.599.552.758.953l2.75 6.619c.116.259.198.523.244.794.047.27.07.547.07.83V21.24c0 .33-.11.608-.33.832-.22.223-.493.335-.82.335a1.139 1.139 0 01-1.149-1.166V9.661l-2.81-6.83z" fill="#2453E1"/></svg>964 15.5711 23.2752 15.9615 23.664C16.3518 24.0528 16.8256 24.2472 17.3831 24.2472ZM22.7896 7.31929H9.20591C8.82285 7.31929 8.53556 7.19798 8.34403 6.95537C8.1525 6.71301 8.05674 6.44642 8.05674 6.15559C8.05674 5.86451 8.1525 5.59688 8.34403 5.3527C8.53556 5.10853 8.82285 4.98645 9.20591 4.98645H22.934C23.3495 4.98645 23.7304 5.10361 24.0767 5.33793C24.4227 5.57225 24.6752 5.88978 24.8343 6.29051L27.5985 12.9539C27.7152 13.2128 27.7969 13.4776 27.8437 13.7482C27.8904 14.0188 27.9138 14.2954 27.9138 14.5779V25.7876C27.9138 26.1181 27.8036 26.3951 27.5832 26.6185C27.3628 26.8422 27.0898 26.9541 26.7642 26.9541C26.4383 26.9541 26.1655 26.8422 25.9456 26.6185C25.7255 26.3951 25.6154 26.1181 25.6154 25.7876V14.207L22.7896 7.31929ZM27.2243 2.83284H13.6992C13.3161 2.83284 13.0288 2.71167 12.8373 2.46931C12.6458 2.22695 12.55 1.96023 12.55 1.66914C12.55 1.37832 12.6458 1.11082 12.8373 0.866645C13.0288 0.622215 13.3161 0.5 13.6992 0.5H27.3687C27.7842 0.5 28.1649 0.61716 28.5109 0.851481C28.8572 1.0858 29.1099 1.40333 29.269 1.80406L32.0182 8.42273C32.1349 8.68167 32.2167 8.94645 32.2634 9.21706C32.3101 9.48767 32.3335 9.76424 32.3335 10.0468V21.2413C32.3335 21.5718 32.2233 21.8489 32.0029 22.0726C31.7828 22.296 31.5098 22.4077 31.1839 22.4077C30.8581 22.4077 30.5852 22.296 30.3653 22.0726C30.1452 21.8489 30.0351 21.5718 30.0351 21.2413V9.66108L27.2243 2.83284Z" fill="#2453E1"/>
</svg>
